img/partners/t-bank.svg

<svg width="217" height="78" viewBox="0 0 217 78" fill="none" xmlns="http://www.w3.org/2000/svg">
<g clip-path="url(#clip0_24_2450)">
<path d="M108.03 36.0521C106.539 35.4735 104.59 35.3003 102.469 35.3003H90.6572V31.5978H110.954V25.2344H82.3438V52.7709H101.723C104.418 52.7709 106.424 52.5397 107.915 51.9606C111.069 50.7459 113.19 47.7956 113.19 43.9197C113.19 39.9862 111.183 37.267 108.03 36.0521ZM103.902 45.5974C103.443 45.7711 102.813 45.8287 102.01 45.8287H90.6572V41.432H102.01C102.927 41.432 103.672 41.4903 104.246 41.7793C104.934 42.1264 105.278 42.7628 105.278 43.5724C105.278 44.3825 104.877 45.2503 103.902 45.5974Z" fill="#253256"/>
<path d="M136.499 25.2344H124.344L113.164 52.7709H122.567L124.115 48.7791H136.729L138.334 52.7709H147.68L136.499 25.2344ZM126.179 42.7048L130.136 31.5978H130.766L134.722 42.7048H126.179Z" fill="#253256"/>
<path d="M158.384 42.5318V52.7711H150.07V25.2344H158.384V35.3005H171.743V25.2344H180.056V52.7711H171.743V42.5318H158.384Z" fill="#253256"/>
<path d="M193.212 42.3584V52.7711H184.898V25.2344H193.212V35.5898H195.505L205.539 25.2344H215.974L202.672 38.4242L216.49 52.7711H205.424L195.505 42.3584H193.212Z" fill="#253256"/>
<path d="M0.492188 9.17578H66.429V40.3411C66.429 48.9186 61.8939 56.845 54.5322 61.1341L33.4608 73.4111L12.3891 61.1341C5.02721 56.845 0.492195 48.9186 0.492195 40.3411L0.492188 9.17578Z" fill="#9AACDE"/>
<path fill-rule="evenodd" clip-rule="evenodd" d="M18.6797 25.2344V35.5756C20.0812 33.9786 22.6294 32.8981 25.543 32.8981H28.7091V44.9195C28.7091 48.1177 27.8479 51.2494 26.5701 52.7893H40.3424C39.0674 51.2478 38.2081 48.12 38.2081 44.9257V32.8981H41.3745C44.288 32.8981 46.8361 33.9786 48.2376 35.5756V25.2344H18.6797Z" fill="#253256"/>
</g>
<defs>
<clipPath id="clip0_24_2450">
<rect width="216" height="78" fill="white" transform="translate(0.492188)"/>
</clipPath>
</defs>
</svg>

<svg width="217" height="78" fill="none" xmlns="http://www.w3.org/2000/svg"><g clip-path="url(#clip0_24_2450)"><path d="M108.03 36.052c-1.491-.578-3.44-.752-5.561-.752H90.657v-3.702h20.297v-6.364h-28.61v27.537h19.379c2.695 0 4.701-.231 6.192-.81 3.154-1.215 5.275-4.165 5.275-8.041 0-3.934-2.007-6.653-5.16-7.868zm-4.128 9.545c-.459.174-1.089.232-1.892.232H90.657v-4.397h11.353c.917 0 1.662.058 2.236.347.688.347 1.032.984 1.032 1.793 0 .81-.401 1.678-1.376 2.025zm32.597-20.363h-12.155l-11.18 27.537h9.403l1.548-3.992h12.614l1.605 3.992h9.346l-11.181-27.537zm-10.32 17.47l3.957-11.106h.63l3.956 11.107h-8.543zm32.205-.172v10.24h-8.314V25.233h8.314V35.3h13.359V25.234h8.313v27.537h-8.313v-10.24h-13.359zm34.828-.174v10.413h-8.314V25.234h8.314V35.59h2.293l10.034-10.356h10.435l-13.302 13.19 13.818 14.347h-11.066l-9.919-10.413h-2.293z" fill="#253256"/><path d="M.492 9.176H66.43V40.34c0 8.578-4.535 16.504-11.897 20.793L33.461 73.411 12.389 61.134C5.027 56.845.492 48.92.492 40.341V9.176z" fill="#9AACDE"/><path fill-rule="evenodd" clip-rule="evenodd" d="M18.68 25.234v10.342c1.401-1.597 3.95-2.678 6.863-2.678h3.166V44.92c0 3.199-.861 6.33-2.139 7.87h13.772c-1.275-1.541-2.134-4.669-2.134-7.863V32.898h3.166c2.914 0 5.462 1.08 6.864 2.678V25.234H18.68z" fill="#253256"/></g><defs><clipPath id="clip0_24_2450"><path fill="#fff" transform="translate(.492)" d="M0 0h216v78H0z"/></clipPath></defs></svg>
